svg/cards_spade_outline.svg

<svg xmlns="http://www.w3.org/2000/svg" viewBox="0 0 24 24"><path d="M11 17s.3 2-2 5h6c-2.3-3-2-5-2-5s1 1 3 1 4-2 4-4c0-5-5-7-8-12-3 5-8 7-8 12 0 2 2 4 4 4s3-1 3-1m2-3h-2s-1 2-3 2c-.9 0-2-1.1-2-2-.2-3 3.9-5.8 6-8.6 2.1 2.7 6.2 5.5 6 8.6 0 .9-1.1 2-2 2-2 0-3-2-3-2"/></svg>

<svg xmlns="http://www.w3.org/2000/svg" id="mdi-cards-spade-outline" viewBox="0 0 24 24"><path d="M11 17C11 17 11.3 19 9 22H15C12.7 19 13 17 13 17S14 18 16 18 20 16 20 14C20 9 15 7 12 2C9 7 4 9 4 14C4 16 6 18 8 18S11 17 11 17M13 14H11C11 14 10 16 8 16C7.1 16 6 14.9 6 14C5.8 11 9.9 8.2 12 5.4C14.1 8.1 18.2 10.9 18 14C18 14.9 16.9 16 16 16C14 16 13 14 13 14Z" /></svg>
